static/assets/img/icons/theme/home/book-open.svg

<svg height="24" viewBox="0 0 24 24" width="24" xmlns="http://www.w3.org/2000/svg"><g fill="none" fill-rule="evenodd"><path d="m0 0h24v24h-24z" opacity="0"/><g fill="#000"><path d="m13.6855025 18.7082217c2.2258834-.889251 4.9973825-1.4586582 8.3144975-1.7082217 0-.0674822 0-3.8987137 0-11.49369474h-.0000238c0-.27612922-.223847-.49997618-.4999762-.49997618-.0042183 0-.0084365.00005339-.0126535.00016014-2.8291155.07162251-5.658231.73612611-8.4873465 1.99351078v11.2438906h-.0000146c0 .2761504.2238642.5000146.5000146.5000146.0635398 0 .1264972-.0121106.1855025-.0356835z"/><path d="m10.3144829 18.7082217c-2.22588335-.889251-4.99738252-1.4586582-8.31449748-1.7082217 0-.0674822 0-3.8987137 0-11.49369474h.00002383c0-.27612922.22384696-.49997618.49997617-.49997618.00421833 0 .00843648.00005339.01265346.00016014 2.82911551.07162251 5.65823103.73612611 8.48734652 1.99351078v11.2438906h.0000146c0 .2761504-.2238642.5000146-.5000146.5000146-.0635397 0-.1264972-.0121106-.1855025-.0356835z" opacity=".3"/></g></g></svg>

<svg width="24px" height="24px" viewBox="0 0 24 24" version="1.1" xmlns="http://www.w3.org/2000/svg" xmlns:xlink="http://www.w3.org/1999/xlink">
    <title>Icon For Book-open</title>
    <g stroke="none" stroke-width="1" fill="none" fill-rule="evenodd">
        <rect opacity="0" x="0" y="0" width="24" height="24"></rect>
        <path d="M13.6855025,18.7082217 C15.9113859,17.8189707 18.682885,17.2495635 22,17 C22,16.9325178 22,13.1012863 22,5.50630526 L21.9999762,5.50630526 C21.9999762,5.23017604 21.7761292,5.00632908 21.5,5.00632908 C21.4957817,5.00632908 21.4915635,5.00638247 21.4873465,5.00648922 C18.658231,5.07811173 15.8291155,5.74261533 13,7 C13,7.04449645 13,10.79246 13,18.2438906 L12.9999854,18.2438906 C12.9999854,18.520041 13.2238496,18.7439052 13.5,18.7439052 C13.5635398,18.7439052 13.6264972,18.7317946 13.6855025,18.7082217 Z" fill="#000000"></path>
        <path d="M10.3144829,18.7082217 C8.08859955,17.8189707 5.31710038,17.2495635 1.99998542,17 C1.99998542,16.9325178 1.99998542,13.1012863 1.99998542,5.50630526 L2.00000925,5.50630526 C2.00000925,5.23017604 2.22385621,5.00632908 2.49998542,5.00632908 C2.50420375,5.00632908 2.5084219,5.00638247 2.51263888,5.00648922 C5.34175439,5.07811173 8.17086991,5.74261533 10.9999854,7 C10.9999854,7.04449645 10.9999854,10.79246 10.9999854,18.2438906 L11,18.2438906 C11,18.520041 10.7761358,18.7439052 10.4999854,18.7439052 C10.4364457,18.7439052 10.3734882,18.7317946 10.3144829,18.7082217 Z" fill="#000000" opacity="0.3"></path>
    </g>
</svg>
